X: 10354
T: Don't Stop Running
R: jig
M: 6/8
K: Bminor
|:f2B BAB|cdc BAB|f2B BAB|fgf edc|
f2B BAB|cdc BAB|f2B BAB|GBF BEB:|
|:B2A FAB|cdc BAB|B2A FAB|cdc dcd|
B2A FAB|cdc BAB|B2A FAB|cdc ecd:|
|:fbb aba|gfd efg|fbb aba|gfe dBB|
fbb aba|gfd efg|fbb aba|1 gfd agf:|2 gfe dBB||

